X:1
T:Las Vegas, 76.76.77.76
T:George Coles Stebbins, 1878
T:Las Vegas, 76.76.77.76
T:Public Domain
C:George Coles Stebbins, 1878
Z:Public Domain
%%score ( 1 2 ) ( 3 4 )
L:1/8
M:6/8
K:F
V:1 treble 
V:2 treble 
V:3 bass 
V:4 bass 
V:1
 [FA]2 [F^G] [FA]2 [GB] | [Ac]2 [^G=B] [Ac]3 | [CF]2 [CF] (FE)[CF] | [FA]3 [EG]3 | %4
 [FA]2 [F^G] [FA]2 [GB] | [Ac]2 [^G=B] [Ac]3 | [CF]2 [CF] (AG)[CF] | [EG]3 F3 | %8
 [EG]2 [EG] ([EG][FA])[GB] | [FA]2 [GB] [Ac]3 | [EG]2 [EG] ([EG][FA])[GB] | [FA]2 [GB] [Ac]3 | %12
 [Ac]2 [GB] [FA]2 F | [FB]2 [Fc] [Fd]3 | [Fc]2 F (AG)[CF] | [EG]3 F3 |] %16
V:2
 x6 | x6 | x3 C2 x | x6 | x6 | x6 | x3 C2 x | x3 F3 | x6 | x6 | x6 | x6 | x5 F | x6 | x2 F C2 x | %15
 x3 F3 |] %16
V:3
 [F,C]2 [F,=B,] [F,C]2 [F,C] | [F,F]2 [F,D] [F,C]3 | [F,A,]2 [F,A,] ([A,C][G,B,])[F,A,] | %3
 [C,C]3 [C,C]3 | [F,C]2 [F,=B,] [F,C]2 [F,C] | [F,F]2 [F,D] [F,C]3 | [F,A,]2 [F,A,] (CB,)[F,A,] | %7
 [C,B,]3 [F,A,]3 | [C,C]2 [C,C] [C,C]2 [C,C] | [F,C]2 [F,C] [F,C]3 | [C,C]2 [C,C] [C,C]2 [C,C] | %11
 [F,C]2 [F,C] [F,C]3 | [F,C]2 [F,C] [F,C]2 [_E,A,] | [D,B,]2 [C,A,] [B,,B,]3 | %14
 [F,A,]2 [F,A,] (CB,)[F,A,] | [C,B,]3 [F,A,]3 |] %16
V:4
 x6 | x6 | x6 | x6 | x6 | x6 | x3 F,2 x | x6 | x6 | x6 | x6 | x6 | x6 | x6 | x3 F,2 x | x6 |] %16

